X:1
T:Earthquake
T:Earthquake
T:Score
T:Transcribed by: Barrett Hodgson 
C:Transcribed by: Barrett Hodgson
%%score { 1 | 2 }
L:1/8
Q:1/4=170
M:4/4
K:Ab
V:1 bass nm="Tuba" snm="Tba."
V:2 bass 
V:1
 F,, z F,, z F,, z F,, z | F,, z F,, z F,, z F,, z | D, z D, z D, z D, z | D, z D, z D, z C,2 | %4
 B,, z B,, z B,, z B,, z | B,, z B,, z B,, z B,, z | C, z C, z C, z C, z |: C, z z2 z C, E,2 | %8
 F, z z2 z2 z C, | F,G, z A, z E,2 D, | z6 z D, | D, z z2 z C,2 z | B,, z z2 z2 z A,, | %13
 B,,A,, z G,, z D,2 C, | z2 z D, C, z z C, | C,D,C,B,, C,B,,A,,G,, | C,4 B,,4 | A,,4 G,,4 | F,8 | %19
 F,4 F, z E, z | D,4 D, z E, z | F,F,E, z D, z B,, z | C,8 | C,2 z2 z C, E,2 | F, z z2 z2 z C, | %25
 F,G, z A, z E,2 D, | z6 z D, | D, z z2 z C,2 z | B,, z z2 z2 z A,, | B,,A,, z G,, z D,2 C, | %30
 z2 z D, C, z z C, :| C,D,C,B,, C,B,,A,,G,, | F,,4 z4 |] %33
V:2
 F,, z F,, z F,, z F,, z | F,, z F,, z F,, z F,, z | D,, z D,, z D,, z D,, z | %3
 D,, z D,, z D,, z D,, z | B,,, z B,,, z B,,, z B,,, z | B,,, z B,,, z B,,, z B,,, z | %6
 C,, z C,, z C,, z C,, z |: C,, z z2 z4 | F,, z F,, z F,, z F,, z | F,, z F,, z F,, z F,, z | %10
 D,, z D,, z D,, z D,, z | D,, z D,, z D,, z D,, z | B,,, z B,,, z B,,, z B,,, z | %13
 B,,, z B,,, z B,,, z B,,, z | C,, z C,, z C,, z C,, z | C,, z z2 z4 | F,,8 | F,,8 | D,,8 | D,,8 | %20
 B,,,8 | B,,,8 | C,,8 | C,,2 z2 z4 | F,, z F,, z F,, z F,, z | F,, z F,, z F,, z F,, z | %26
 D,, z D,, z D,, z D,, z | D,, z D,, z D,, z D,, z | B,,, z B,,, z B,,, z B,,, z | %29
 B,,, z B,,, z B,,, z B,,, z | C,, z C,, z C,, z C,, z :| C,, z z2 z4 | F,,,4 z4 |] %33

